X: 1
T:E to E reel
R:reel
D:Sin E
Z:id:hn-reel-574
M:C|
K:Em
eE~E2 GFEB,|CDEG FABd|eE~E2 GFEA|Bdef gefd|
eE~E2 GFEB,|CDEG FAdc|BG~G2 ADFA|1 (3Bcd AF E2Bd:|2 BdAF EFGA||
|:Beef geag|fdAG FGAc|BG~G2 AFdF|eFdF BFAF|
E2ef geag|fdAG FGAc|BG~G2 ADFA|1 (3Bcd AF EFGA:|2 BdAF E2Bd||
